src/assets/Featured_icon3.svg

<svg width="52" height="52" viewBox="0 0 52 52" fill="none" xmlns="http://www.w3.org/2000/svg">
<g filter="url(#filter0_d_3518_1193)">
<rect x="2" y="1" width="48" height="48" rx="10" fill="white"/>
<rect x="2.5" y="1.5" width="47" height="47" rx="9.5" stroke="#EAECF0"/>
<path d="M25 16H21.8C20.1198 16 19.2798 16 18.638 16.327C18.0735 16.6146 17.6146 17.0735 17.327 17.638C17 18.2798 17 19.1198 17 20.8V29.2C17 30.8802 17 31.7202 17.327 32.362C17.6146 32.9265 18.0735 33.3854 18.638 33.673C19.2798 34 20.1198 34 21.8 34H30.2C31.8802 34 32.7202 34 33.362 33.673C33.9265 33.3854 34.3854 32.9265 34.673 32.362C35 31.7202 35 30.8802 35 29.2V26M26 21H30V25M29.5 16.5V15M33.4393 17.5607L34.5 16.5M34.5103 21.5H36.0103M17 26.3471C17.6519 26.4478 18.3199 26.5 19 26.5C23.3864 26.5 27.2653 24.3276 29.6197 21" stroke="#344054" stroke-width="2" stroke-linecap="round" stroke-linejoin="round"/>
</g>
<defs>
<filter id="filter0_d_3518_1193" x="0" y="0" width="52" height="52" filterUnits="userSpaceOnUse" color-interpolation-filters="sRGB">
<feFlood flood-opacity="0" result="BackgroundImageFix"/>
<feColorMatrix in="SourceAlpha" type="matrix" values="0 0 0 0 0 0 0 0 0 0 0 0 0 0 0 0 0 0 127 0" result="hardAlpha"/>
<feOffset dy="1"/>
<feGaussianBlur stdDeviation="1"/>
<feColorMatrix type="matrix" values="0 0 0 0 0.0627451 0 0 0 0 0.0941176 0 0 0 0 0.156863 0 0 0 0.05 0"/>
<feBlend mode="normal" in2="BackgroundImageFix" result="effect1_dropShadow_3518_1193"/>
<feBlend mode="normal" in="SourceGraphic" in2="effect1_dropShadow_3518_1193" result="shape"/>
</filter>
</defs>
</svg>

<svg xmlns="http://www.w3.org/2000/svg" width="52" height="52" fill="none"><g filter="url(#a)"><rect width="48" height="48" x="2" y="1" fill="#fff" rx="10"/><rect width="47" height="47" x="2.5" y="1.5" stroke="#EAECF0" rx="9.5"/><path stroke="#344054" stroke-linecap="round" stroke-linejoin="round" stroke-width="2" d="M25 16h-3.2c-1.68 0-2.52 0-3.162.327a3 3 0 0 0-1.311 1.311C17 18.28 17 19.12 17 20.8v8.4c0 1.68 0 2.52.327 3.162a3 3 0 0 0 1.311 1.311C19.28 34 20.12 34 21.8 34h8.4c1.68 0 2.52 0 3.162-.327a3 3 0 0 0 1.311-1.311C35 31.72 35 30.88 35 29.2V26m-9-5h4v4m-.5-8.5V15m3.94 2.56 1.06-1.06m.01 5h1.5M17 26.347q.979.151 2 .153c4.386 0 8.265-2.172 10.62-5.5"/></g><defs><filter id="a" width="52" height="52" x="0" y="0" color-interpolation-filters="sRGB" filterUnits="userSpaceOnUse"><feFlood flood-opacity="0" result="BackgroundImageFix"/><feColorMatrix in="SourceAlpha" result="hardAlpha" values="0 0 0 0 0 0 0 0 0 0 0 0 0 0 0 0 0 0 127 0"/><feOffset dy="1"/><feGaussianBlur stdDeviation="1"/><feColorMatrix values="0 0 0 0 0.0627451 0 0 0 0 0.0941176 0 0 0 0 0.156863 0 0 0 0.05 0"/><feBlend in2="BackgroundImageFix" result="effect1_dropShadow_3518_1193"/><feBlend in="SourceGraphic" in2="effect1_dropShadow_3518_1193" result="shape"/></filter></defs></svg>
